X:31
T:Con Cassidy's Highland
R:highland
D:Altan: Altan
Z:id:hn-hf-31
M:C|
L:1/8
K:Ador
gfg | eAAB GA (3Bcd | eAAf gfgf | eAAB GABc |1 dBGB d :|2 dBGB d2 ||
|: (3Bcd | eaag efgf  | eaaa bged |1 eaag efge | dBGB d2 :|2 (3efg fa gfga | bge^c d ||
P:variations
|: gfg | eAAB GA (3Bcd | eAfA gAfA | eAAB GABc |1 dBGB d :|2 dBGB d2 ||
|: (3Bcd | eaag efgf  | ea~a2 bged |1 eaag efge | dBGB d2 :|2 (3efg fa gfga | bge^c d ||

